X:33
T:Concertina Reel, The
R:reel
H:There's also a version in G, #792. Also in A, #793.
D:Patrick Street 1.
D:Noel Hill & Tony McMahon: I gCnoc na Grai.
Z:id:hn-reel-33
M:C|
K:D
A2FA BAFA|A2FA BAFA|B2 (3cBA BAcA|BAcA BAFA|
A2FA BAFA|A2FA BAFE|FABc dedB|AFEF D2 (3EFG:|
|:Ad~d2 Ad~d2|AddA BAFA|B2 (3cBA BAcA|BAcA BAFA|
Ad~d2 Ad~d2|Addc d2dB|A2FA BcdB|AFEF D2 (3EFG:|
<end>
<start>
